packages/core/src/svgs/tokens/branded/JOE.svg

<svg width="24" height="24" viewBox="0 0 24 24" fill="none" xmlns="http://www.w3.org/2000/svg">
<path d="M4.57129 6.00001C5.81701 7.34858 10.177 9.85716 11.6798 11.1429C13.2798 10.4572 17.1485 8.16573 18.857 6.00001C17.9828 5.12573 13.0856 2.76 11.7142 2C10.0056 2.89715 5.90272 4.85715 4.57129 6.00001Z" fill="#F2716A"/>
<path d="M4.57129 8.52576C4.92558 8.61718 5.14272 9.37148 5.40557 9.53148C5.73129 9.71438 5.94272 9.4629 6.26272 9.63438C6.64557 9.83438 7.62272 10.3315 7.78844 10.5772C8.06844 10.68 7.52559 11.3487 7.71415 11.4287C8.15987 11.6287 8.10844 13.1429 8.28559 13.4287C8.89702 13.56 11.3998 12.5715 11.9998 12.8572V9.77145L8.33702 7.88575C7.6113 7.52003 7.13701 7.24575 6.49701 6.9429C5.88559 6.65718 5.21701 6.17147 4.57129 6.00003V8.52576Z" fill="#A24741"/>
<path d="M17.5544 16.4572C17.44 16.6572 14.4344 18.6286 13.8972 18.6686C13.7829 18.8057 13.68 18.68 13.5257 18.7944C13.1144 19.1372 12.9944 19.2914 12.4972 19.3944C12.2515 19.48 12.1829 19.6514 12 19.8914C12.24 20.5544 12.4229 19.7029 12.4115 22C13.5087 21.92 14.4744 20.8686 15.4229 20.4114C15.44 20.4057 15.4287 20.2857 15.4287 20.1029C16.3715 20.1772 17.76 19.1314 18.5487 18.6744C18.92 18.4344 18.8515 18.3429 18.8515 18.3429L18.8229 16.5144C18.4972 16.4457 18.6572 16.5257 18.4972 16.2857C17.9772 16.3429 17.9315 16.3714 17.5544 16.4572Z" fill="#3B1A26"/>
<path d="M17.7148 9.42856C17.8634 9.62287 18.6748 9.55999 18.8576 9.71433V8.28571C18.6176 8.39999 17.8519 9.20571 17.7148 9.42856Z" fill="#BD957E"/>
<path d="M11.7261 17.0115C11.7775 17.2457 11.7433 17.8172 11.7661 18.0629C11.8233 18.8629 12.6747 18.0744 13.9375 18.2C15.4347 18.1372 16.669 17.6687 17.6404 16.2572C17.9776 15.76 17.6748 15.76 17.9948 15.4572C18.269 15.2 18.3833 14.7829 18.7948 14.5544C18.8861 14.2915 19.0633 14.2115 19.1948 13.9715C19.389 13.6457 19.309 13.4115 19.309 12.9257L15.4803 15.04C14.9203 15.3544 12.1318 17.0515 11.7261 17.0115Z" fill="#D6D6D6"/>
<path d="M12 9.74865V12.5715C12.4 12.5715 13.5715 11.7372 13.9087 11.4972V10.5829C14.1715 9.89718 16.2057 9.12576 16.9029 8.9429C17.2687 8.84004 17.9715 8.95433 18.2857 9.1429C18.4572 8.99433 18.5544 8.61718 18.8572 8.54861V6.00003C17.0287 6.57147 13.8457 8.65718 12 9.74865Z" fill="#DB5B54"/>
<path d="M4.57129 13.6572C5.62844 14.1372 5.99987 14.8572 7.08559 14.7714C7.06844 13.9314 7.65702 13.7886 7.8113 13.0744C7.92559 12.5714 7.75415 11.3829 7.75987 10.7999C7.91987 10.5029 7.79415 10.7086 8.26272 10.5657C8.10272 10.2971 6.78844 9.69715 6.43415 9.49144C6.13701 9.32 5.93129 9.23429 5.62844 9.05144C5.37701 8.89714 4.90844 8.50286 4.57129 8.41144V13.6572Z" fill="#886B58"/>
<path d="M18.0001 11.4344L17.983 12.2857C17.4573 12.4057 17.6116 12.4457 17.0916 12.7029C16.8401 12.8457 16.5373 13.08 16.1373 13.1944L16.1316 12.5087C16.1133 12.5288 16.0921 12.5461 16.0688 12.56C15.7716 12.8344 15.6458 13.0172 15.2688 12.7657L15.2401 13.7887C14.823 13.92 14.7258 14.0857 14.343 14.2057C14.103 14.4857 13.6288 14.68 13.3488 14.7715L13.3716 12.7144C13.663 12.5029 14.4573 12.2572 14.343 12.1429L13.2973 11.7315C12.983 11.7887 12.6973 11.9944 12.4688 12.1429C12.1773 12.3257 12.2116 12.3944 11.9658 12.5429L11.9945 16.5944C13.7488 15.6057 17.7658 14.1829 18.8173 12.5087V11.0457C18.4916 11.0972 18.2116 11.2172 17.9888 11.4344H18.0001Z" fill="#BD957E"/>
<path d="M7.06896 14.7714V15.3314C7.4861 15.4686 8.13753 15.8572 8.48039 16.12C8.86896 16.2915 9.09753 16.3772 9.29753 16.6115L9.84034 16.8572C9.94327 16.9829 10.069 17.0515 10.229 17.1315C10.2803 17.1657 10.4918 17.2687 10.4975 17.28C10.7203 17.4287 10.4803 17.1657 10.6575 17.4629L10.8347 17.5315C11.1759 17.6483 11.4919 17.8285 11.7661 18.0629L11.909 18.0115C11.8061 17.8687 11.8575 17.9944 11.7947 17.7487C11.7661 17.6229 11.7775 17.5772 11.7661 17.4515C11.7433 17.2057 11.7833 17.2344 11.7318 17C11.2175 16.8972 10.7947 16.2115 10.4975 15.8572L8.40039 13.3086C8.24039 12.9086 8.33753 11.5772 8.34324 11.0686C7.97753 10.9944 7.84611 10.7886 7.42896 10.6972C7.42896 11.4286 7.49181 12.3944 7.37181 12.9086C7.21181 13.6229 7.05753 13.9314 7.06896 14.7714Z" fill="#898988"/>
<path d="M13.3545 10.6972C13.7945 11.1087 15.1258 11.8744 15.663 12.1829C16.3945 11.7257 18.5601 10.6172 19.4173 9.85721C18.9773 9.58293 17.3373 8.30292 16.9201 8.4172C16.263 8.60006 13.6058 10.0344 13.3545 10.7029V10.6972Z" fill="#F2716A"/>
<path d="M12.0005 16.8572V12.6172C11.3777 12.3486 9.21771 11.2514 8.57199 11.1429C8.57199 11.56 8.41771 12.6514 8.57199 12.9657L12.0005 16.8572Z" fill="#886B58"/>
<path d="M8.14289 11.0744C8.14289 11.5886 8.04004 12.92 8.20004 13.32L10.4857 15.8629C10.7829 16.2229 11.2115 16.9086 11.7257 17.0057C12.1257 17.0514 14.9257 15.3486 15.4744 15.0286L19.3144 12.9144C19.1657 12.7657 18.9772 12.6629 18.7887 12.5372C18.5944 12.8686 18.8229 12.6 18.3829 12.8572L11.7829 16.5714L8.6229 13C8.48576 12.6572 8.57147 11.3544 8.57147 10.8914C8.26861 10.9657 8.38289 10.9029 8.14289 11.0744Z" fill="#FCFCFC"/>
<path d="M8.57178 19.7144C8.8575 19.9029 11.9947 22.2857 12.5718 21.9657C12.5832 19.7657 12.4175 20.5772 12.1718 19.9544C11.1432 19.7144 10.6518 19.4972 9.77177 19C9.46323 19.1029 8.57178 19.1429 8.57178 19.7144Z" fill="#29121A"/>
<path d="M9.8291 18.2515C9.91484 18.3657 9.87484 18.32 9.8919 18.5772C9.90337 18.6972 9.92617 18.8915 9.90337 19.0915C10.4976 19.4172 11.2748 19.8572 11.8919 20.1772C12.0634 20.1944 13.1319 19.623 13.1434 19.4287V19.143C13.3434 19.0115 13.7091 18.6915 14.0004 18.5715C13.7834 18.4572 13.1776 18.9258 12.9034 18.76C12.4576 17.96 12.3891 17.8287 10.8576 17.4287C10.6691 17.5829 10.5148 17.56 10.2862 17.7144C10.0576 17.8457 9.96617 18.0572 9.8291 18.2515Z" fill="#9B3D53"/>
<path d="M15.6748 11.9372L15.6519 12.9372C16.5948 12.2344 18.3091 11.2229 19.4291 10.9144V9.85718C18.0113 10.195 16.7129 10.9144 15.6748 11.9372Z" fill="#DB5B54"/>
<path d="M7.4283 20.2857V18.5714C7.09116 18.2744 6.8683 18.32 6.57115 18C6.81115 17.7657 6.77687 18.0914 7.14258 18C6.90258 18.0114 7.16545 17.6744 7.15401 17.5029L6.85687 17.1429C6.39401 18.1657 5.95973 17.7029 5.14258 17.4744V19.1429C5.5083 19.2572 7.02258 20.1829 7.4283 20.2857Z" fill="#896C5A"/>
<path d="M5.19986 17.4857C5.55414 17.5715 5.71414 17.8287 6.04559 17.8629C6.26272 17.88 6.35987 17.8287 6.53701 17.76C6.82844 17.6457 6.78844 17.7487 6.91415 17.4744C6.58844 17.0629 6.75415 17.4744 6.54844 17.0115C6.75415 16.84 6.67415 16.8287 7.01701 16.8687C7.09129 16.52 7.07987 16.7257 6.96559 16.6744C6.53701 16.7657 6.87415 16.7887 6.53701 16.7144C6.41129 16.7544 6.13129 16.7429 6.02272 16.7944C4.79986 16.2629 5.35414 15.88 5.67986 15.3829C5.69129 15.3657 6.23415 15.4515 6.28559 15.4287C6.03414 13.7144 5.71414 16 5.64557 14.4744C5.35986 14.6572 5.57701 14.5772 5.19986 14.6572C4.83414 14.4115 4.92558 14.52 4.57129 14.2857V17.1657C4.82272 17.28 4.93701 17.3772 5.19986 17.48V17.4857Z" fill="#9B3D53"/>
<path d="M5.6462 14.4572C5.64049 14.8572 5.64621 14.6457 5.36621 14.88C5.84621 15.6114 5.93192 14.4744 6.03477 15.2114C6.12049 15.3029 5.74907 15.52 5.83477 15.6114C5.93192 15.9086 5.70907 16.1086 5.89192 16.3886C6.02335 16.5944 6.43477 16.6514 6.56049 16.8457C6.67477 16.9029 7.09192 16.5029 7.01764 16.8457L7.2805 17.1429C7.25764 17.5144 6.84049 17.6972 7.10907 17.6972C7.48621 17.7772 7.6062 17.7657 7.83478 18.04C8.06335 18.3086 7.50907 18.5257 7.5605 18.8857C7.63478 20.7714 7.7605 19.2857 8.31478 19.0857L8.56622 18.9886L8.57192 18.5714C9.30335 18.5714 8.88622 18.3886 9.42911 18.2857V18.5714H9.71485C9.85191 18.3772 10.0519 18 10.3034 17.8514C10.5319 17.7086 10.6691 17.5829 10.8576 17.4286L10.6691 17.4514C10.3091 17.5886 9.94338 17.7544 9.56045 17.7772C9.33193 17.8172 9.44618 17.72 9.34911 17.8514C9.20622 18.0344 8.61764 18.4514 8.27478 18.4629L7.79478 17.1772C7.41764 17.0629 7.01764 16.32 6.84049 15.96C6.62907 15.5372 6.57764 15.6114 6.36049 15.2914C6.0862 14.8914 6.08621 14.9257 6.04621 14.5486L6.43477 14.5657C6.32049 14.3829 6.60049 14.4514 6.23477 14.4114C6.07477 14.4914 6.30907 14.1544 6.02335 14.1544L5.78335 14.2172C5.40049 14 5.78335 14.1657 5.41764 13.9714C5.50335 14.2457 5.50334 14.2 5.6462 14.4514V14.4572Z" fill="#C67768"/>
<path d="M13.3428 11.72L14.2342 12.2L14.2856 12.2572C14.5542 12.3886 14.9142 12.56 15.1198 12.7429L15.297 12.7657C15.5198 12.92 15.4228 12.8686 15.6513 12.9372L15.6742 11.9372C15.2456 11.7029 14.9542 11.56 14.5256 11.3029C14.2398 11.1314 13.697 10.7886 13.3542 10.6972L13.3428 11.7257V11.72Z" fill="#A24741"/>
<path d="M9.64058 18.4457C9.35498 18.6286 8.72063 18.6744 8.40633 18.8057L8.11491 18.8514C7.94348 19.04 7.91491 18.88 7.81777 18.7372L7.4292 18.6572V20.2857C7.85777 20.1944 7.60063 20.2629 7.97777 20.0229C8.1892 19.8914 8.3092 19.8344 8.52063 19.72C8.73777 19.48 9.65204 19.2514 9.94351 19.1372C9.96058 18.92 10.012 18.7086 10.0006 18.5714C9.98351 18.2972 9.80058 18.1144 9.71498 18L9.64058 18.4457Z" fill="#BD957E"/>
<path d="M7.78227 17.1829C7.54227 16.64 7.49656 17.04 7.57084 16.5544C7.78227 16.4172 7.58227 16.5315 7.8737 16.4172C8.22799 16.2744 7.97656 16.3257 8.37656 16.2629L8.54799 16.1087C8.13428 15.7721 7.67434 15.4969 7.18227 15.2915L7.10227 14.7315L6.45084 14.4915L6.03369 14.5487C6.06798 14.9144 6.07369 14.8915 6.34799 15.2915C6.56513 15.6115 6.62227 15.5372 6.82799 15.96C7.00513 16.3144 7.39941 17.0744 7.78227 17.1829Z" fill="#B64759"/>
<path d="M13.126 19.3315C13.3832 19.2744 13.5032 19.2115 13.686 19.1029C13.8002 19.0344 13.7946 19.0572 13.9374 18.9315C14.0746 18.8172 14.046 18.8515 14.1489 18.72C16.2917 17.6457 14.2746 18.68 13.7832 17.96L11.9946 17.7772L12.8402 18.84C13.1146 19.0115 13.2974 18.68 13.5089 18.7944C13.206 18.9144 13.1946 18.9144 13.0117 19.0457L13.126 19.3315ZM16.8689 16.52L17.2174 16.9087C17.5146 16.8344 17.6289 16.7257 17.9317 16.5829C18.2974 16.4972 18.0917 16.4572 18.5946 16.4172C18.8517 16.08 18.8117 16.2115 18.8117 15.6172L18.8002 14.5429C18.4002 14.7829 18.286 15.2 18.006 15.4457C17.6802 15.7544 17.7032 15.56 17.3717 16.0515C17.0346 16.5315 17.046 16.5315 16.8689 16.52Z" fill="#C54D62"/>
<path d="M7.71435 17.4286C7.86293 17.5199 8.09722 17.8399 8.18865 18.1371C8.6915 18.0229 9.14293 17.9999 9.42869 17.7143C8.30865 16.1657 9.0458 17.2914 8.37722 16.2514C8.10293 16.2971 7.80579 16.3943 7.57722 16.5371C7.42865 16.8571 7.65722 17.0914 7.71435 17.4286Z" fill="#DA5A53"/>
<path d="M7.52057 18.8572L8.12629 18.64C8.09007 18.4046 7.98328 18.1857 7.82004 18.0122C7.6568 17.8389 7.44478 17.719 7.212 17.6686C6.84057 17.76 6.68629 17.84 6.44629 18.0857L6.54914 18.2C6.91485 18.4514 6.892 18.3029 7.52057 18.8514V18.8572Z" fill="#9D4542"/>
<path d="M15.3434 17.6572L15.1834 17.7486L15.0977 18.3086C15.7834 18.16 15.2462 18.28 16.5834 17.44C16.9091 17.2344 17.7434 16.8972 17.9262 16.5829C17.6291 16.7257 17.5149 16.7944 17.2234 16.8686L16.8862 16.5086C16.4405 16.5944 16.7605 16.3372 16.4291 16.7886L15.7091 17.6229L15.3434 17.6572Z" fill="#AA3A62"/>
<path d="M6.45727 16.7887C6.32012 16.5087 6.29727 16.4287 6.14869 16.2229C5.7944 15.72 5.8344 15.7944 6.28584 15.4972L6.0344 15.2229C5.98297 15.24 5.64584 15.3372 5.6344 15.3544C5.3544 15.7944 5.69154 15.4344 5.12012 16.0687C5.26297 16.4172 5.53154 16.7944 6.02297 16.92L6.21155 16.8629L6.45155 16.7887H6.45727Z" fill="#B74667"/>
<path d="M14.3662 14.2C14.7549 14.0744 14.8519 13.9144 15.2691 13.7772L15.2977 12.7544L15.1262 12.7315C14.9434 12.92 14.6405 13.04 14.3834 13.1315L14.3662 14.2Z" fill="#493238"/>
<path d="M11.7656 18.0744C11.7771 18.3715 11.9371 18.64 11.9199 18.76C11.8914 19.0287 11.7656 18.7429 11.7771 19.4057C12.0056 19.3315 12.4743 19.16 12.6914 19.0629C12.7028 18.68 12.7771 18.9887 12.6228 18.7087C12.3943 18.3087 12.5599 18.7087 12.3943 18.4229C12.2228 18.1144 12.3999 18.1487 12.0971 17.9029L11.9028 18.0229L11.7656 18.08V18.0744Z" fill="#B74667"/>
<path d="M9.31389 17.76L9.46249 17.7657C9.59956 17.1144 9.03389 17.1257 9.29676 16.6114C9.09676 16.3772 8.86818 16.2972 8.47961 16.12L8.37676 16.2514C8.83389 16.9714 8.39961 16.7372 7.81104 17.1429C7.92533 17.2286 7.79389 17.3144 8.06246 17.3144C8.89676 17.3372 8.29104 16.7372 9.31961 17.76H9.31389Z" fill="#DC8573"/>
<path d="M17.1091 11.9144L17.0977 12.7029C17.6177 12.4457 17.4634 12.4057 17.9834 12.2857L17.9949 11.4344L17.2749 11.76L17.2177 11.8L17.1034 11.9144H17.1091Z" fill="#493238"/>
<path d="M6.96547 16.6629C6.79403 16.3772 6.38261 15.7487 6.28547 15.4857C5.5426 15.9887 6.10833 16.8457 6.96547 16.6629Z" fill="#C54D62"/>
<path d="M9.38335 17.76L9.33762 17.863C9.43482 17.7258 9.39482 17.96 9.63482 17.92C9.76615 17.5772 9.76042 17.623 10.0348 17.3715L9.85188 16.8572L9.30904 16.6115L9.05762 16.8287C9.24619 17.1829 9.46335 17.3772 9.38335 17.76Z" fill="#D25652"/>
<path d="M4.57129 14.5715C4.87986 14.8687 4.66272 14.7544 5.10844 15.0172C5.57129 14.9315 5.63986 14.76 5.99987 14.5715C5.82272 14.2857 5.54272 13.9944 5.42844 13.6972C5.14844 13.52 5.02844 13.4972 4.57129 13.4286V14.5715Z" fill="#A24741"/>
<path d="M13.772 17.9544L13.9434 18.2C14.1605 18.4457 14.252 18.2686 14.1377 18.7144C14.5377 18.68 15.0062 18.4629 15.3492 18.2057C15.2692 18.1257 15.1605 17.8629 15.332 17.6457L14.9205 17.4514L13.7777 17.9544H13.772Z" fill="#C75667"/>
<path d="M11.9663 19.9658L12.3206 19.9087C12.492 19.6915 12.3492 19.8172 12.5892 19.6744C12.6312 19.6435 12.6775 19.6184 12.7263 19.6C12.9492 19.4972 12.635 19.6115 12.955 19.5087C12.9492 19.2915 12.9663 19.3544 12.8863 19.24C12.4635 19.1887 12.5206 19.3772 12.0978 19.4972C11.9435 19.5487 11.9835 19.5087 11.8463 19.5258C11.8063 19.823 11.7035 19.8972 11.9606 19.9658H11.9663Z" fill="#C54D62"/>
<path d="M9.33676 17.8686L9.38249 17.7657H9.31961C7.45675 18.2514 8.78246 18.0114 7.81104 17.3886L8.26246 18.4857C8.60532 18.4744 9.19389 18.0457 9.33676 17.8686Z" fill="#A83B45"/>
<path d="M7.4292 10.8229C7.80063 10.9029 7.85777 11.08 8.1892 11.1429C8.41205 10.9886 8.30348 11.0457 8.57205 10.9829C8.41777 10.7257 8.64063 10.9372 8.25777 10.7544L7.81205 10.5714C7.3892 10.6972 7.57205 10.56 7.4292 10.8229Z" fill="#DBDCDC"/>
<path d="M9.54346 17.8C9.92626 17.7887 10.5035 17.56 10.8577 17.4287C10.6863 17.1429 10.0805 17.1029 9.84052 16.8687L9.91492 17.3487C9.64052 17.5944 9.68626 17.4515 9.54919 17.8H9.54346Z" fill="#A83B45"/>
<path d="M8.56498 18.9886C8.90211 18.8629 9.27354 18.6286 9.57641 18.4629L9.51921 18.2572C8.98211 18.36 9.1764 18.5372 8.45068 18.5372L8.56498 18.9886Z" fill="#BB524B"/>
<path d="M6.69662 17.4857C6.98233 17.5029 7.38805 17.5714 7.4052 17.1544L7.14233 16.8572C6.80519 16.8172 6.74233 16.8172 6.53662 16.9886C6.75375 17.4744 6.37662 17.0744 6.69662 17.48V17.4857Z" fill="#DA5A54"/>
</svg>

<svg xmlns="http://www.w3.org/2000/svg" width="24" height="24" fill="none" viewBox="0 0 24 24">
    <path fill="#F2716A" d="M4.571 6c1.246 1.349 5.606 3.857 7.109 5.143 1.6-.686 5.468-2.977 7.177-5.143-.874-.874-5.771-3.24-7.143-4-1.708.897-5.811 2.857-7.143 4"/>
    <path fill="#A24741" d="M4.571 8.526c.355.091.572.845.835 1.005.325.183.537-.068.857.103.383.2 1.36.697 1.525.943.28.103-.262.772-.074.852.446.2.394 1.714.572 2 .611.131 3.114-.857 3.714-.572V9.771L8.337 7.886c-.726-.366-1.2-.64-1.84-.943-.611-.286-1.28-.772-1.926-.943z"/>
    <path fill="#3B1A26" d="M17.554 16.457c-.114.2-3.12 2.172-3.657 2.212-.114.137-.217.011-.371.125-.412.343-.532.497-1.029.6-.245.086-.314.257-.497.497.24.663.423-.188.412 2.109 1.097-.08 2.062-1.131 3.01-1.589.018-.005.007-.125.007-.308.943.074 2.331-.972 3.12-1.429.371-.24.303-.331.303-.331l-.03-1.829c-.325-.068-.165.012-.325-.228-.52.057-.566.085-.943.171"/>
    <path fill="#BD957E" d="M17.715 9.429c.148.194.96.131 1.143.285V8.286c-.24.114-1.006.92-1.143 1.143"/>
    <path fill="#D6D6D6" d="M11.726 17.012c.051.234.017.805.04 1.05.057.8.909.012 2.172.138 1.497-.063 2.731-.531 3.702-1.943.338-.497.035-.497.355-.8.274-.257.388-.674.8-.903.091-.263.268-.343.4-.582.194-.326.114-.56.114-1.046L15.48 15.04c-.56.314-3.348 2.012-3.754 1.972"/>
    <path fill="#DB5B54" d="M12 9.749v2.823c.4 0 1.572-.835 1.909-1.075v-.914c.262-.686 2.297-1.457 2.994-1.64.366-.103 1.069.011 1.383.2.171-.149.268-.526.571-.594V6C17.03 6.571 13.846 8.657 12 9.749"/>
    <path fill="#886B58" d="M4.571 13.657c1.057.48 1.429 1.2 2.515 1.114-.018-.84.571-.982.725-1.697.115-.503-.057-1.691-.051-2.274.16-.297.034-.091.503-.234-.16-.269-1.475-.869-1.829-1.075-.297-.171-.503-.257-.806-.44-.251-.154-.72-.548-1.057-.64z"/>
    <path fill="#BD957E" d="m18 11.434-.017.852c-.526.12-.371.16-.891.417-.252.143-.555.377-.955.491l-.005-.685a.3.3 0 0 1-.063.051c-.297.274-.423.457-.8.206l-.029 1.023c-.417.131-.514.297-.897.417-.24.28-.714.474-.994.566l.023-2.058c.291-.211 1.085-.457.971-.571l-1.046-.412c-.314.058-.6.263-.828.412-.292.183-.257.251-.503.4l.029 4.051c1.754-.988 5.77-2.411 6.822-4.085v-1.463c-.325.051-.605.171-.828.388z"/>
    <path fill="#898988" d="M7.069 14.771v.56c.417.138 1.069.526 1.411.789.389.171.618.257.818.491l.542.246c.103.126.229.195.389.274.051.035.263.138.269.149.222.149-.018-.114.16.183l.177.069c.34.116.657.296.931.53l.143-.05c-.103-.143-.052-.018-.114-.263-.029-.126-.018-.172-.029-.297-.023-.246.017-.218-.034-.452-.514-.103-.937-.788-1.234-1.143L8.4 13.31c-.16-.4-.062-1.732-.057-2.24-.365-.075-.497-.28-.914-.372 0 .732.063 1.697-.057 2.212-.16.714-.314 1.022-.303 1.862"/>
    <path fill="#F2716A" d="M13.355 10.697c.44.412 1.77 1.177 2.308 1.486.732-.457 2.897-1.566 3.754-2.326-.44-.274-2.08-1.554-2.497-1.44-.657.183-3.314 1.617-3.566 2.286z"/>
    <path fill="#886B58" d="M12 16.857v-4.24c-.622-.268-2.782-1.366-3.428-1.474 0 .417-.154 1.508 0 1.823z"/>
    <path fill="#FCFCFC" d="M8.143 11.074c0 .515-.103 1.846.057 2.246l2.286 2.543c.297.36.725 1.046 1.24 1.143.4.045 3.2-1.657 3.748-1.977l3.84-2.115c-.148-.148-.337-.251-.525-.377-.195.332.034.063-.406.32l-6.6 3.714L8.623 13c-.137-.343-.052-1.646-.052-2.109-.302.075-.188.012-.428.183"/>
    <path fill="#29121A" d="M8.572 19.714c.286.189 3.423 2.572 4 2.252.011-2.2-.154-1.389-.4-2.012-1.029-.24-1.52-.457-2.4-.954-.309.103-1.2.143-1.2.714"/>
    <path fill="#9B3D53" d="M9.83 18.252c.085.114.045.068.062.325.011.12.034.314.011.514.595.326 1.372.766 1.989 1.086.171.017 1.24-.554 1.251-.748v-.286c.2-.131.566-.451.857-.572-.217-.114-.822.355-1.097.189-.445-.8-.514-.931-2.045-1.331-.189.154-.343.131-.572.285-.228.132-.32.343-.457.538"/>
    <path fill="#DB5B54" d="m15.675 11.937-.023 1c.943-.703 2.657-1.714 3.777-2.023V9.857a8 8 0 0 0-3.754 2.08"/>
    <path fill="#896C5A" d="M7.428 20.286V18.57c-.337-.297-.56-.251-.857-.571.24-.234.206.091.572 0-.24.011.022-.326.011-.497l-.297-.36c-.463 1.023-.897.56-1.714.331v1.669c.365.114 1.88 1.04 2.285 1.143"/>
    <path fill="#9B3D53" d="M5.2 17.486c.354.085.514.343.846.377.217.017.314-.034.491-.103.291-.114.251-.011.377-.286-.326-.411-.16 0-.366-.462.206-.172.126-.183.469-.143.074-.349.063-.143-.051-.195-.429.092-.092.115-.429.04-.126.04-.406.029-.514.08-1.223-.531-.669-.914-.343-1.411.011-.017.554.069.606.046-.252-1.715-.572.571-.64-.955-.286.183-.069.103-.446.183-.366-.245-.274-.137-.629-.371v2.88c.252.114.366.211.629.314z"/>
    <path fill="#C67768" d="M5.646 14.457c-.006.4 0 .189-.28.423.48.731.566-.406.669.331.085.092-.286.309-.2.4.097.298-.126.498.057.778.131.205.543.262.668.457.115.057.532-.343.458 0l.263.297c-.023.371-.44.554-.172.554.377.08.497.069.726.343.228.269-.326.486-.274.846.074 1.885.2.4.754.2l.251-.097.006-.418c.731 0 .314-.182.857-.285v.285h.286c.137-.194.337-.571.588-.72.229-.142.366-.268.555-.422l-.189.022c-.36.138-.726.303-1.109.326-.228.04-.114-.057-.21.074-.144.183-.732.6-1.075.612l-.48-1.286c-.377-.114-.777-.857-.955-1.217-.21-.423-.262-.349-.48-.669-.274-.4-.274-.365-.314-.742l.389.017c-.115-.183.165-.115-.2-.155-.16.08.074-.257-.212-.257l-.24.063c-.383-.217 0-.051-.365-.246.085.275.085.229.228.48z"/>
    <path fill="#A24741" d="m13.343 11.72.891.48.052.057c.268.132.628.303.834.486l.177.023c.223.154.126.103.354.171l.023-1c-.428-.234-.72-.377-1.148-.634-.286-.172-.829-.514-1.172-.606l-.011 1.029z"/>
    <path fill="#BD957E" d="M9.64 18.446c-.285.183-.92.228-1.234.36l-.291.045c-.172.189-.2.029-.297-.114l-.389-.08v1.629c.429-.092.172-.023.549-.263.211-.132.331-.189.543-.303.217-.24 1.131-.469 1.423-.583.017-.217.068-.428.057-.566-.017-.274-.2-.457-.286-.571z"/>
    <path fill="#B64759" d="M7.782 17.183c-.24-.543-.285-.143-.211-.629.211-.137.011-.022.303-.137.354-.143.103-.091.503-.154l.171-.154a5.6 5.6 0 0 0-1.366-.818l-.08-.56-.651-.24-.417.058c.034.365.04.343.314.742.217.32.274.246.48.669.177.354.571 1.114.954 1.223"/>
    <path fill="#C54D62" d="M13.126 19.332c.257-.058.377-.12.56-.23.114-.068.109-.045.251-.17.138-.115.109-.08.212-.212 2.143-1.074.126-.04-.366-.76l-1.788-.183.845 1.063c.275.172.457-.16.669-.046-.303.12-.314.12-.497.252zm3.743-2.812.348.389c.298-.075.412-.183.715-.326.365-.086.16-.126.663-.166.257-.337.217-.206.217-.8l-.012-1.074c-.4.24-.514.657-.794.903-.326.308-.303.114-.634.606-.337.48-.326.48-.503.468"/>
    <path fill="#DA5A53" d="M7.714 17.429c.149.09.383.41.475.708.502-.114.954-.137 1.24-.423-1.12-1.548-.383-.423-1.052-1.463a2.3 2.3 0 0 0-.8.286c-.148.32.08.554.137.892"/>
    <path fill="#9D4542" d="m7.52 18.857.606-.217a1.18 1.18 0 0 0-.914-.971c-.371.091-.526.171-.766.417l.103.114c.366.251.343.103.972.651z"/>
    <path fill="#AA3A62" d="m15.343 17.657-.16.092-.085.56c.685-.149.148-.029 1.485-.869.326-.206 1.16-.543 1.343-.857-.297.143-.411.211-.703.286l-.337-.36c-.445.085-.125-.172-.457.28l-.72.834z"/>
    <path fill="#B74667" d="M6.457 16.789c-.137-.28-.16-.36-.308-.566-.355-.503-.315-.429.137-.726l-.252-.274c-.051.017-.388.114-.4.131-.28.44.058.08-.514.715.143.348.412.725.903.851l.189-.057.24-.074z"/>
    <path fill="#493238" d="M14.366 14.2c.389-.126.486-.286.903-.423l.029-1.023-.172-.022c-.183.188-.486.308-.743.4z"/>
    <path fill="#B74667" d="M11.766 18.074c.011.297.171.566.154.686-.029.269-.154-.017-.143.646.229-.075.697-.246.914-.343.012-.383.086-.074-.068-.354-.229-.4-.063 0-.229-.286-.171-.309.006-.274-.297-.52l-.194.12-.137.057z"/>
    <path fill="#DC8573" d="m9.314 17.76.148.006c.138-.652-.428-.64-.165-1.155-.2-.234-.429-.314-.817-.491l-.103.131c.457.72.023.486-.566.892.114.086-.017.171.251.171.835.023.229-.577 1.258.446z"/>
    <path fill="#493238" d="m17.11 11.914-.012.789c.52-.257.365-.297.885-.417l.012-.852-.72.326-.057.04-.115.114z"/>
    <path fill="#C54D62" d="M6.965 16.663c-.171-.286-.582-.914-.68-1.177-.742.503-.177 1.36.68 1.177"/>
    <path fill="#D25652" d="m9.383 17.76-.045.103c.097-.137.057.097.297.057.131-.343.125-.297.4-.549l-.183-.514-.543-.245-.251.217c.188.354.405.548.325.931"/>
    <path fill="#A24741" d="M4.571 14.572c.309.297.092.182.537.445.463-.085.532-.257.892-.445-.177-.286-.457-.578-.572-.875-.28-.177-.4-.2-.857-.268z"/>
    <path fill="#C75667" d="m13.772 17.954.171.246c.218.246.309.069.195.514.4-.034.868-.251 1.211-.508-.08-.08-.188-.343-.017-.56l-.412-.195-1.142.503z"/>
    <path fill="#C54D62" d="m11.966 19.966.355-.057c.171-.217.028-.092.268-.235a.6.6 0 0 1 .137-.074c.223-.103-.091.011.229-.091-.006-.218.011-.155-.069-.269-.422-.051-.365.137-.788.257-.155.052-.115.012-.252.029-.04.297-.143.371.115.44z"/>
    <path fill="#A83B45" d="m9.337 17.869.045-.103H9.32c-1.863.485-.538.245-1.509-.377l.451 1.097c.343-.012.932-.44 1.075-.617"/>
    <path fill="#DBDCDC" d="M7.43 10.823c.37.08.428.257.76.32.222-.154.113-.097.382-.16-.154-.257.069-.046-.314-.229l-.446-.183c-.423.126-.24-.011-.383.252"/>
    <path fill="#A83B45" d="M9.543 17.8c.383-.011.96-.24 1.315-.371-.172-.286-.777-.326-1.017-.56l.074.48c-.274.245-.229.102-.366.451z"/>
    <path fill="#BB524B" d="M8.565 18.989c.337-.126.709-.36 1.011-.526l-.057-.206c-.537.103-.343.28-1.068.28z"/>
    <path fill="#DA5A54" d="M6.697 17.486c.285.017.691.085.708-.332l-.263-.297c-.337-.04-.4-.04-.605.132.217.485-.16.085.16.491z"/>
</svg>
